X:87
T:Morgan Magan
C:O'Carolan
M:4/4
L:1/4
K:G
Q:1/4=56
z D | "G" DG GA | "C" (c/B/)(A/G/) "G" (B/c/)d | "C" eA "A" AG | "D" (G/F/)(E/D/) D(E/F/) | "G" G2 (G/F/)(G/A/) |
"C" G(F/E/) "G" D>uG | "D" (F/G/)A "A" A(E/G/) | "D" FD     D(E/F/) | "G" G>G "D" (A/G/)(A/F/) | "G" G3 B | "C" c>(B "D" A)B/c/ |
"G" d2 "C" e2 | "G" dB "Am" (c/B/)(A/G/) | "D" (A/G/)(F/E/) D(E/F/) | "G" G>G "D" (A/G/)(A/F/) | "G" (G2 G)(d/c/) || "G" Bd "(Bm)" d(e/f/) |
"G" gG (B/c/)d | gG (B/c/)d | "C" (e/d/)(c/B/) "D" A>c | "G" (B/A/)(B/c/) dB | "C" ec "G" dB |
"Am" cA "G" dG | "D" FD D(G/F/) | "C" EC C>(D | E)C C>(E | "D" F)D D(A/G/) |
(F/G/)(F/E/) D(B/c/) | "G" (d/B/G/B/) "C" (e/d/)(c/B/) | "Am" (c/B/)(A/G/) "D" (F/G/)(A/F/) | "G" DG "D" (A/G/)(A/F/) | "G" G2 |]

